en/_assets/wiki/svg/fav.svg

<svg xmlns="http://www.w3.org/2000/svg" xmlns:xlink="http://www.w3.org/1999/xlink" width="16" height="16" class="yc-icon nv-composite-bar__menu-icon" fill="currentColor" stroke="none" aria-hidden="true"><svg viewBox="0 0 16 16" xmlns="http://www.w3.org/2000/svg"><path fill-rule="evenodd" clip-rule="evenodd" d="M2.62602 6.66542L5.32378 9.29025L4.68684 13L8.02328 11.2472L11.3597 13L10.7228 9.29025L13.4205 6.66542L9.69207 6.12102L8.02328 2.74381L6.35449 6.12102L2.62602 6.66542ZM5.30207 4.64211L7.37385 0.449336C7.63982 -0.0889063 8.40815 -0.0889063 8.67412 0.449336L10.7459 4.64211L15.379 5.31859C15.9735 5.40539 16.2104 6.13532 15.7801 6.55406L12.4281 9.81538L13.2192 14.4228C13.3208 15.0145 12.699 15.4657 12.1671 15.1862L8.02398 13.0097L3.88082 15.1862C3.34892 15.4657 2.72718 15.0145 2.82877 14.4228L3.61983 9.81538L0.267912 6.55406C-0.162455 6.13532 0.0744698 5.40539 0.668924 5.31859L5.30207 4.64211Z"></path></svg></svg>

<svg xmlns="http://www.w3.org/2000/svg" width="16" height="16" fill="currentColor" aria-hidden="true" class="yc-icon nv-composite-bar__menu-icon"><svg xmlns="http://www.w3.org/2000/svg" viewBox="0 0 16 16"><path fill-rule="evenodd" d="M2.626 6.665 5.324 9.29 4.687 13l3.336-1.753L11.36 13l-.637-3.71 2.697-2.625-3.728-.544-1.669-3.377L6.354 6.12l-3.728.544Zm2.676-2.023L7.374.45a.725.725 0 0 1 1.3 0l2.072 4.193 4.633.677a.724.724 0 0 1 .401 1.235l-3.352 3.261.791 4.608a.725.725 0 0 1-1.052.763L8.024 13.01l-4.143 2.176a.725.725 0 0 1-1.052-.763l.79-4.608-3.351-3.26a.724.724 0 0 1 .4-1.236l4.634-.677Z" clip-rule="evenodd"/></svg></svg>
